!!!OTL: Maybe
!!!COM: Flynn, Allan
!!!COM: Madden, Frank
!!!LAR: Frey, Hugo
!! "Maybe" by Allan Flynn and Frank Madden
!! from "Barbershop Memories" compiled and arranged by Hugo Frey
!! copyright 1975 by EMI Music Publ. Ltd.; p. 22; alla breve; in G major
!! NOTE:  Both endings are encoded with the repeat.
**kern	**kern	**kern	**kern
*Ivox	*Ivox	*Ivox	*Ivox
*M2/2	*M2/2	*M2/2	*M2/2
*G:	*G:	*G:	*G:
=1	=1	=1	=1
{2.G	1B	1d	1g
4Fn}	.	.	.
=2	=2	=2	=2
1E	1d	1B	1g#
=3	=3	=3	=3
4E	4c#	4A	4gn
2E	2c#	2B	2g
4AA	4A	4F#	4c#
=4	=4	=4	=4
1AA	1G	1E	1c#
=5	=5	=5	=5
4D	4F#	4A	4cn
2D	2F#	2B	2d
4D	4A	4F#	4c
=6	=6	=6	=6
4AA	2.G	2.E	2.c
8.BB	.	.	.
16AA	.	.	.
4D	.	.	.
4D	4B-	4F#	4d
=7	=7	=7	=7
2GG	2Bn	[1d	2B
4GG#	4Fn	.	4B
4GG#	4F	.	4B
=8	=8	=8	=8
{2AA	{4E	1d]	{2c
.	4G	.	.
2D}	2F#}	.	4B
.	.	.	4A#}
=9	=9	=9	=9
4GG	4D	4G	4B
2GG	2D	2F#	2B
4GG	4D	4E	4B
=10	=10	=10	=10
4GG	4D	4G	4B-
2GG	2D	2F#	2B-
4GG	4D	4E	4B-
=11	=11	=11	=11
4GG#	4D	4E#	4Bn
4AA	4D	4F#	4c#
2r	2r	4D	2r
.	.	[4E	.
=12	=12	=12	=12
4r	4r	1E]	4r
4AA	4E	.	4c
2D	2F#	.	2c
=13	=13	=13	=13
4GG#	4D	4E#	4B
4AA	4D	4F#	4c
2r	2r	4D	2r
.	.	[4En	.
=14	=14	=14	=14
4r	4r	2E]	4r
4AA	4G	.	4c
4D	4F#	2c	4d
4D	4F#	.	4d
=15	=15	=15	=15
4AA	4G	4c	4e
4D	4F#	4d	4c
4E	4F#	4A#	4c#
[4D	[4G	[4B	[4d
=16	=16	=16	=16
4D]	1G]	1B]	1d]
{4GG	.	.	.
4BB	.	.	.
4D}	.	.	.
=17	=17	=17	=17
{2.G	1B	1d	1g
4Fn}	.	.	.
=18	=18	=18	=18
1E	1d	1B	1g#
=19	=19	=19	=19
4E	4c#	4A	4gn
2E	2c#	2B	2g
4AA	4A	4F#	4c#
=20	=20	=20	=20
1AA	1G	1E	1c#
=21	=21	=21	=21
4D	4F#	4A	4c
2D	2F#	2B	2d
4D	4A	4F#	4c
=22	=22	=22	=22
{4AA	2.G	2.E	2.c
8.BB	.	.	.
16AA	.	.	.
4D}	.	.	.
4D	4B-	4F#	4d
=23	=23	=23	=23
2r	2r	1D	2r
2GG	2B	.	2d
=24	=24	=24	=24
2r	2r	1D#	2r
2BB	2A	.	2B
=25	=25	=25	=25
4C	4E	4E	4c
2C	2E	2F#	2c
4C	4E	4G	4c
=26	=26	=26	=26
4BB	4E	4G#	4d
2E	2F#	2A	2d
4E	4G#	4B	4d
=27	=27	=27	=27
4AA	4E	4c	4e
4AA	4E	4B	4d
4AA	4E	4A	4c
[4AA	[4G	[4e	[4c#
=28	=28	=28	=28
2AA]	2G]	2e]	2c#]
2C#	2G	2e-	2B-
=29	=29	=29	=29
4D	4G	4d	4Bn
{4Fn	{4A	2B	2d
4E}	4G#}	.	.
4E	4G#	4d	4B
=30	=30	=30	=30
2AA	2Gn	2E	2c#
2D	2F#	2B	2d
=31	=31	=31	=31
2.GG	2.D	2.G	2.B
4D	4F#	4A	4d
=32	=32	=32	=32
4E-	4G	4B-	4e-
4En	4G#	4Bn	4en
4Fn	4A	4c	4fn
4F#	4A#	4c#	4f#
=33	=33	=33	=33
{2.G	1B	1d	1g
4Fn}	.	.	.
=34	=34	=34	=34
1E	1d	1B	1g#
=35	=35	=35	=35
4E	4c#	4A	4gn
2E	2c#	2B	2g
4AA	4A	4F#	4c#
=36	=36	=36	=36
1AA	1G	1E	1c#
=37	=37	=37	=37
4D	4F#	4A	4cn
2D	2F#	2B	2d
4D	4A	4F#	4c
=38	=38	=38	=38
4AA	2.G	2.E	2.c
8.BB	.	.	.
16AA	.	.	.
4D	.	.	.
4D	4B-	4F#	4d
=39	=39	=39	=39
2GG	2Bn	[1d	2B
4GG#	4Fn	.	4B
4GG#	4F	.	4B
=40	=40	=40	=40
{2AA	{4E	1d]	{2c
.	4G	.	.
2D}	2F#}	.	4B
.	.	.	4A#}
=41	=41	=41	=41
4GG	4D	4G	4B
2GG	2D	2F#	2B
4GG	4D	4E	4B
=42	=42	=42	=42
4GG	4D	4G	4B-
2GG	2D	2F#	2B-
4GG	4D	4E	4B-
=43	=43	=43	=43
4GG#	4D	4E#	4Bn
4AA	4D	4F#	4c#
2r	2r	4D	2r
.	.	[4E	.
=44	=44	=44	=44
4r	4r	1E]	4r
4AA	4E	.	4c
2D	2F#	.	2c
=45	=45	=45	=45
4GG#	4D	4E#	4B
4AA	4D	4F#	4c
2r	2r	4D	2r
.	.	[4En	.
=46	=46	=46	=46
4r	4r	2E]	4r
4AA	4G	.	4c
4D	4F#	2c	4d
4D	4F#	.	4d
=47	=47	=47	=47
4AA	4G	4c	4e
4D	4F#	4d	4c
4E	4F#	4A#	4c#
[4D	[4G	[4B	[4d
=48	=48	=48	=48
4D]	1G]	1B]	1d]
{4GG	.	.	.
4BB	.	.	.
4D}	.	.	.
=49	=49	=49	=49
{2.G	1B	1d	1g
4Fn}	.	.	.
=50	=50	=50	=50
1E	1d	1B	1g#
=51	=51	=51	=51
4E	4c#	4A	4gn
2E	2c#	2B	2g
4AA	4A	4F#	4c#
=52	=52	=52	=52
1AA	1G	1E	1c#
=53	=53	=53	=53
4D	4F#	4A	4c
2D	2F#	2B	2d
4D	4A	4F#	4c
=54	=54	=54	=54
{4AA	2.G	2.E	2.c
8.BB	.	.	.
16AA	.	.	.
4D}	.	.	.
4D	4B-	4F#	4d
=55	=55	=55	=55
2r	2r	1D	2r
2GG	2B	.	2d
=56	=56	=56	=56
2r	2r	1D#	2r
2BB	2A	.	2B
=57	=57	=57	=57
4C	4E	4E	4c
2C	2E	2F#	2c
4C	4E	4G	4c
=58	=58	=58	=58
4BB	4E	4G#	4d
2E	2F#	2A	2d
4E	4G#	4B	4d
=59	=59	=59	=59
4AA	4E	4c	4e
4AA	4E	4B	4d
4AA	4E	4A	4c
[4AA	[4G	[4e	[4c#
=60	=60	=60	=60
2AA]	2G]	2e]	2c#]
2C#	2G	2e-	2B-
=61	=61	=61	=61
4D	4G	4d	4Bn
{4Fn	{4A	2B	2d
4E}	4G#}	.	.
4E	4G#	4d	4B
=62	=62	=62	=62
2AA	2Gn	2E	2c#
2D	2F#	2B	{4d
.	.	.	4e}
=63	=63	=63	=63
[1GG	[1B	[1d	[1g
=64	=64	=64	=64
1GG]	1B]	1d]	1g]
==	==	==	==
*-	*-	*-	*-
